X: 0
T: St. Ambrose
Z: Copyright © 2006 by Douglas D. Anderson
Z: Released To The Public Domain
L: 1/4
M: none
Q: 1/4=380
V: P1 name="Church Organ"
%%MIDI program 1 19
V: P2 name="French Horn"
%%MIDI program 2 60
V: P3 name="Trombone"
%%MIDI program 3 57
V: P4 name="Tuba"
%%MIDI program 4 58
K: F
[V: P1]  F2 | F2 G2 A2 B2 | A2 G2 F2 | c2 | c2 d2 c2 A2 | c2 B2 A2 | B2 | A2 G2 F2 E2 | F2 G2 A2 | c2 | B2 G2 A2 B2 | A2 G2 F2|]
w: Cre- a tor of the stars of night, Thy peo- ple’s ev- er last ing Light; Je- su, Re- deem er, save us all, And hear thy ser- vants when they call
[V: P2]  C2 | D2 E2 F2 F2 | F2 E2 F2 | F2 | E2 F2 G2 F2 | F2 F2 F2 | F2 | F2 E2 D2 C2 | D2 E2 F2 | E2 | F2 G2 F2 D2 | F2 E2 F2|]
[V: P3]  A,2 | A,2 C2 C2 D2 | C2 C2 A,2 | A,2 | C2 A,2 G,2 C2 | A,2 D2 C2 | D2 | C2 C2 A,2 A,2 | A,2 C2 C2 | C2 | D2 C2 C2 D2 | C2 C2 A,2|]
[V: P4]  F,2 | D,2 C,2 F,2 B,,2 | F,2 C,2 F,2 | F,2 | A,2 D,2 E,2 F,2 | F,2 B,,2 F,2 | B,,2 | F,2 C,2 D,2 A,,2 | D,2 C,2 F,2 | A,,2 | D,2 E,2 F,2 G,,2 | (A,, B,,) C,2 F,,2|]

